X: 12
T:Blacksmith's reel
R:reel
D:First Month of Summer
Z:transcribed by Alf 
Z:follo
M:4/4
K:D
|:aff/f/f aff/f/f|aff/f/f efge|aff/f/f aff/f/f|g2fg efge:|
|:d2fd Adfd|d2fd efge|d2fd Adfd| edcd efgf :|
